modules/framework7-icons/icons/radio.svg

<?xml version="1.0" encoding="UTF-8"?>
<svg width="56px" height="50px" viewBox="0 0 56 50" version="1.1" xmlns="http://www.w3.org/2000/svg" xmlns:xlink="http://www.w3.org/1999/xlink">
    <!-- Generator: Sketch 40.1 (33804) - http://www.bohemiancoding.com/sketch -->
    <title>radio</title>
    <desc>Created with Sketch.</desc>
    <defs></defs>
    <g id="Page-1" stroke="none" stroke-width="1" fill="none" fill-rule="evenodd">
        <g id="radio" transform="translate(0.000000, 5.000000)" fill="#000000">
            <ellipse id="Oval-15" cx="28" cy="20" rx="4" ry="4"></ellipse>
            <path d="M19.868272,28.131728 C20.4540585,28.7175144 21.4038059,28.7175144 21.9895924,28.131728 C22.5753788,27.5459415 22.5753788,26.5961941 21.9895924,26.0104076 C18.6701359,22.6909512 18.6701359,17.3090488 21.9895924,13.9895924 C22.5753788,13.4038059 22.5753788,12.4540585 21.9895924,11.868272 C21.4038059,11.2824856 20.4540585,11.2824856 19.868272,11.868272 C15.3772427,16.3593014 15.3772427,23.6406986 19.868272,28.131728 Z M39.4879401,20.5279551 C39.6345603,17.320405 38.4475499,14.1840939 36.131728,11.868272 C35.5459415,11.2824856 34.5961941,11.2824856 34.0104076,11.868272 C33.4246212,12.4540585 33.4246212,13.4038059 34.0104076,13.9895924 C35.7236566,15.7028413 36.5995769,18.0171922 36.4910694,20.3909653 C36.3948827,22.4952041 35.5308345,24.4899808 34.0104076,26.0104076 C33.4246212,26.5961941 33.4246212,27.5459415 34.0104076,28.131728 C34.5961941,28.7175144 35.5459415,28.7175144 36.131728,28.131728 C38.1864795,26.0769765 39.3579103,23.3725638 39.4879401,20.5279551 Z" id="Oval-15"></path>
            <path d="M14.2114178,33.7885822 C14.7972042,34.3743687 15.7469517,34.3743687 16.3327381,33.7885822 C16.9185245,33.2027958 16.9185245,32.2530483 16.3327381,31.6672619 C9.8890873,25.2236111 9.8890873,14.7763889 16.3327381,8.33273811 C16.9185245,7.74695167 16.9185245,6.7972042 16.3327381,6.21141777 C15.7469517,5.62563133 14.7972042,5.62563133 14.2114178,6.21141777 C6.59619408,13.8266415 6.59619408,26.1733585 14.2114178,33.7885822 Z M47.4795439,20.8955232 C47.7282152,15.4554439 45.7160324,10.138868 41.7885822,6.21141777 C41.2027958,5.62563133 40.2530483,5.62563133 39.6672619,6.21141777 C39.0814755,6.7972042 39.0814755,7.74695167 39.6672619,8.33273811 C42.9921391,11.6576153 44.6932317,16.1522311 44.4826732,20.7585334 C44.2959998,24.8423113 42.6177601,28.7167637 39.6672619,31.6672619 C39.0814755,32.2530483 39.0814755,33.2027958 39.6672619,33.7885822 C40.2530483,34.3743687 41.2027958,34.3743687 41.7885822,33.7885822 C45.2734051,30.3037594 47.2590275,25.7196709 47.4795439,20.8955232 Z" id="Oval-15"></path>
            <path d="M8.55456352,39.4454365 C9.14034995,40.0312229 10.0900974,40.0312229 10.6758839,39.4454365 C11.2616703,38.85965 11.2616703,37.9099026 10.6758839,37.3241161 C1.10803871,27.756271 1.10803871,12.243729 10.6758839,2.67588386 C11.2616703,2.09009742 11.2616703,1.14034995 10.6758839,0.554563517 C10.0900974,-0.0312229203 9.14034995,-0.0312229203 8.55456352,0.554563517 C-2.18485451,11.2939815 -2.18485451,28.7060185 8.55456352,39.4454365 Z M55.4711477,21.2630914 C55.82187,13.5904828 52.984515,6.09364203 47.4454365,0.554563517 C46.85965,-0.0312229203 45.9099026,-0.0312229203 45.3241161,0.554563517 C44.7383297,1.14034995 44.7383297,2.09009742 45.3241161,2.67588386 C50.2606217,7.61238941 52.7868866,14.2872699 52.4742771,21.1261015 C52.197117,27.1894184 49.7046857,32.9435466 45.3241161,37.3241161 C44.7383297,37.9099026 44.7383297,38.85965 45.3241161,39.4454365 C45.9099026,40.0312229 46.85965,40.0312229 47.4454365,39.4454365 C52.3603307,34.5305423 55.1601447,28.066778 55.4711477,21.2630914 Z" id="Oval-15"></path>
        </g>
    </g>
</svg>

<svg width="56" height="50" viewBox="0 0 56 50" xmlns="http://www.w3.org/2000/svg"><g transform="translate(0 5)" fill="#000" fill-rule="evenodd"><ellipse cx="28" cy="20" rx="4" ry="4"/><path d="M19.868 28.132a1.5 1.5 0 0 0 2.122-2.122 8.5 8.5 0 0 1 0-12.02 1.5 1.5 0 0 0-2.122-2.122c-4.49 4.491-4.49 11.773 0 16.264zm19.62-7.604a11.472 11.472 0 0 0-3.356-8.66 1.5 1.5 0 0 0-2.122 2.122 8.472 8.472 0 0 1 2.481 6.401 8.462 8.462 0 0 1-2.48 5.62 1.5 1.5 0 0 0 2.12 2.12 11.462 11.462 0 0 0 3.357-7.603z"/><path d="M14.211 33.789a1.5 1.5 0 1 0 2.122-2.122c-6.444-6.443-6.444-16.89 0-23.334A1.5 1.5 0 0 0 14.21 6.21c-7.615 7.616-7.615 19.962 0 27.578zM47.48 20.896A19.45 19.45 0 0 0 41.789 6.21a1.5 1.5 0 1 0-2.122 2.122 16.45 16.45 0 0 1 4.816 12.426 16.432 16.432 0 0 1-4.816 10.908 1.5 1.5 0 0 0 2.122 2.122 19.431 19.431 0 0 0 5.69-12.893z"/><path d="M8.555 39.445a1.5 1.5 0 0 0 2.12-2.12c-9.567-9.569-9.567-25.081 0-34.65a1.5 1.5 0 0 0-2.12-2.12c-10.74 10.739-10.74 28.151 0 38.89zM55.47 21.263A27.427 27.427 0 0 0 47.445.555a1.5 1.5 0 0 0-2.12 2.12 24.428 24.428 0 0 1 7.15 18.451 24.401 24.401 0 0 1-7.15 16.198 1.5 1.5 0 0 0 2.12 2.121 27.4 27.4 0 0 0 8.026-18.182z"/></g></svg>
